src/assets/duotone/FolderAdd.svg

<svg width="24" height="24" viewBox="0 0 24 24"  xmlns="http://www.w3.org/2000/svg">
<path opacity="0.4" d="M21.74 9.44H2V6.42C2 3.98 3.98 2 6.42 2H8.75C10.38 2 10.89 2.53 11.54 3.4L12.94 5.26C13.25 5.67 13.29 5.73 13.87 5.73H16.66C19.03 5.72 21.05 7.28 21.74 9.44Z" />
<path d="M21.99 10.8399C21.97 10.3499 21.89 9.88994 21.74 9.43994H2V16.6499C2 19.5999 4.4 21.9999 7.35 21.9999H16.65C19.6 21.9999 22 19.5999 22 16.6499V11.0699C22 10.9999 22 10.9099 21.99 10.8399ZM14.5 16.2499H12.81V17.9999C12.81 18.4099 12.47 18.7499 12.06 18.7499C11.65 18.7499 11.31 18.4099 11.31 17.9999V16.2499H9.5C9.09 16.2499 8.75 15.9099 8.75 15.4999C8.75 15.0899 9.09 14.7499 9.5 14.7499H11.31V12.9999C11.31 12.5899 11.65 12.2499 12.06 12.2499C12.47 12.2499 12.81 12.5899 12.81 12.9999V14.7499H14.5C14.91 14.7499 15.25 15.0899 15.25 15.4999C15.25 15.9099 14.91 16.2499 14.5 16.2499Z" />
</svg>

<?xml version="1.0" encoding="UTF-8"?>
<svg width="24" height="24" viewBox="0 0 24 24" xmlns="http://www.w3.org/2000/svg">
 <path d="m21.74 9.44h-19.74v-3.02c0-2.44 1.98-4.42 4.42-4.42h2.33c1.63 0 2.14 0.53 2.79 1.4l1.4 1.86c0.31 0.41 0.35 0.47 0.93 0.47h2.79c2.37-0.01 4.39 1.55 5.08 3.71z" opacity=".4"/>
 <path d="m21.99 10.84c-0.02-0.49-0.1-0.94996-0.25-1.4h-19.74v7.21c0 2.95 2.4 5.35 5.35 5.35h9.3c2.95 0 5.35-2.4 5.35-5.35v-5.58c0-0.07 0-0.16-0.01-0.23zm-7.49 5.41h-1.69v1.75c0 0.41-0.34 0.75-0.75 0.75s-0.75-0.34-0.75-0.75v-1.75h-1.81c-0.41 0-0.75-0.34-0.75-0.75s0.34-0.75 0.75-0.75h1.81v-1.75c0-0.41 0.34-0.75 0.75-0.75s0.75 0.34 0.75 0.75v1.75h1.69c0.41 0 0.75 0.34 0.75 0.75s-0.34 0.75-0.75 0.75z"/>
</svg>
